X:7862
T:Wenn alle Br\"unnlein flie\ssen
C:anon.
O:Germany
Z:Transcribed by Frank Nordberg - http://www.musicaviva.com
F:http://abc.musicaviva.com/tunes/germany/wenn-alle-brunnlein.abc
M:2/4
L:1/8
K:G
zD|GG AA|B>A GB|cB AG|B2:|
zd|D>E DF|G>AG2|A2d2|d>e dc|BG BA|G2|]
W:
W:
W:  From Musica Viva - http://www.musicaviva.com
W:  the Internet center for free sheet music downloads.

